img/svg/close-black.svg

<svg width="60" height="60" viewBox="0 0 60 60" fill="none" xmlns="http://www.w3.org/2000/svg">
<path fill-rule="evenodd" clip-rule="evenodd" d="M32.6681 29.6985L46.0324 43.0628L43.0626 46.0326L29.6982 32.6683L16.3339 46.0326L13.3641 43.0628L26.7284 29.6985L13.3641 16.3342L16.3339 13.3643L29.6982 26.7286L43.0626 13.3643L46.0324 16.3342L32.6681 29.6985Z" fill="black"/>
</svg>

<svg width="60" height="60" viewBox="0 0 60 60" fill="none" xmlns="http://www.w3.org/2000/svg"><path fill-rule="evenodd" clip-rule="evenodd" d="M32.668 29.698l13.364 13.365-2.97 2.97-13.364-13.365-13.364 13.365-2.97-2.97 13.364-13.365-13.364-13.364 2.97-2.97L29.698 26.73l13.365-13.365 2.97 2.97-13.365 13.364z" fill="#000"/></svg>
